%
(Header)
(Generated by gcodetools from Inkscape.)
(Using default header. To add your own header create file "header" in the output dir.)
M3
(Header end.)
G21 (All units in mm)

(Start cutting path id: path3482)
(Change tool to Default tool)

G00 Z0.000000
G00 X198.079784 Y237.696032

G01 Z-0.000000 F100.0(Penetrate)
G01 X188.175901 Y237.696032 Z-0.000000 F400.000000
G01 X188.175901 Y247.600268 Z-0.000000
G01 X198.079784 Y247.600268 Z-0.000000
G01 X198.079784 Y237.696032 Z-0.000000
G01 X198.079784 Y237.696032 Z-0.000000
G00 Z0.000000

(End cutting path id: path3482)


(Start cutting path id: path3480)
(Change tool to Default tool)

G00 Z0.000000
G00 X198.079784 Y217.887913

G01 Z-0.000000 F100.0(Penetrate)
G01 X188.175901 Y217.887913 Z-0.000000 F400.000000
G01 X188.175901 Y227.791796 Z-0.000000
G01 X198.079784 Y227.791796 Z-0.000000
G01 X198.079784 Y217.887913 Z-0.000000
G01 X198.079784 Y217.887913 Z-0.000000
G00 Z0.000000

(End cutting path id: path3480)


(Start cutting path id: path3478)
(Change tool to Default tool)

G00 Z0.000000
G00 X198.079784 Y198.079793

G01 Z-0.000000 F100.0(Penetrate)
G01 X188.175901 Y198.079793 Z-0.000000 F400.000000
G01 X188.175901 Y207.983676 Z-0.000000
G01 X198.079784 Y207.983676 Z-0.000000
G01 X198.079784 Y198.079793 Z-0.000000
G01 X198.079784 Y198.079793 Z-0.000000
G00 Z0.000000

(End cutting path id: path3478)


(Start cutting path id: path3476)
(Change tool to Default tool)

G00 Z0.000000
G00 X198.079784 Y178.272026

G01 Z-0.000000 F100.0(Penetrate)
G01 X188.175901 Y178.272026 Z-0.000000 F400.000000
G01 X188.175901 Y188.175910 Z-0.000000
G01 X198.079784 Y188.175910 Z-0.000000
G01 X198.079784 Y178.272026 Z-0.000000
G01 X198.079784 Y178.272026 Z-0.000000
G00 Z0.000000

(End cutting path id: path3476)


(Start cutting path id: path3474)
(Change tool to Default tool)

G00 Z0.000000
G00 X198.079784 Y158.464259

G01 Z-0.000000 F100.0(Penetrate)
G01 X188.175901 Y158.464259 Z-0.000000 F400.000000
G01 X188.175901 Y168.367790 Z-0.000000
G01 X198.079784 Y168.367790 Z-0.000000
G01 X198.079784 Y158.464259 Z-0.000000
G01 X198.079784 Y158.464259 Z-0.000000
G00 Z0.000000

(End cutting path id: path3474)


(Start cutting path id: path3472)
(Change tool to Default tool)

G00 Z0.000000
G00 X198.079784 Y138.656140

G01 Z-0.000000 F100.0(Penetrate)
G01 X188.175901 Y138.656140 Z-0.000000 F400.000000
G01 X188.175901 Y148.560023 Z-0.000000
G01 X198.079784 Y148.560023 Z-0.000000
G01 X198.079784 Y138.656140 Z-0.000000
G01 X198.079784 Y138.656140 Z-0.000000
G00 Z0.000000

(End cutting path id: path3472)


(Start cutting path id: path3470)
(Change tool to Default tool)

G00 Z0.000000
G00 X198.079784 Y118.848020

G01 Z-0.000000 F100.0(Penetrate)
G01 X188.175901 Y118.848020 Z-0.000000 F400.000000
G01 X188.175901 Y128.751904 Z-0.000000
G01 X198.079784 Y128.751904 Z-0.000000
G01 X198.079784 Y118.848020 Z-0.000000
G01 X198.079784 Y118.848020 Z-0.000000
G00 Z0.000000

(End cutting path id: path3470)


(Start cutting path id: path3468)
(Change tool to Default tool)

G00 Z0.000000
G00 X198.079784 Y99.039901

G01 Z-0.000000 F100.0(Penetrate)
G01 X188.175901 Y99.039901 Z-0.000000 F400.000000
G01 X188.175901 Y108.943784 Z-0.000000
G01 X198.079784 Y108.943784 Z-0.000000
G01 X198.079784 Y99.039901 Z-0.000000
G01 X198.079784 Y99.039901 Z-0.000000
G00 Z0.000000

(End cutting path id: path3468)


(Start cutting path id: path3466)
(Change tool to Default tool)

G00 Z0.000000
G00 X198.079784 Y79.231781

G01 Z-0.000000 F100.0(Penetrate)
G01 X188.175901 Y79.231781 Z-0.000000 F400.000000
G01 X188.175901 Y89.136017 Z-0.000000
G01 X198.079784 Y89.136017 Z-0.000000
G01 X198.079784 Y79.231781 Z-0.000000
G01 X198.079784 Y79.231781 Z-0.000000
G00 Z0.000000

(End cutting path id: path3466)


(Start cutting path id: path3464)
(Change tool to Default tool)

G00 Z0.000000
G00 X198.079784 Y59.424014

G01 Z-0.000000 F100.0(Penetrate)
G01 X188.175901 Y59.424014 Z-0.000000 F400.000000
G01 X188.175901 Y69.327898 Z-0.000000
G01 X198.079784 Y69.327898 Z-0.000000
G01 X198.079784 Y59.424014 Z-0.000000
G01 X198.079784 Y59.424014 Z-0.000000
G00 Z0.000000

(End cutting path id: path3464)


(Start cutting path id: path3462)
(Change tool to Default tool)

G00 Z0.000000
G00 X198.079784 Y39.616248

G01 Z-0.000000 F100.0(Penetrate)
G01 X188.175901 Y39.616248 Z-0.000000 F400.000000
G01 X188.175901 Y49.520131 Z-0.000000
G01 X198.079784 Y49.520131 Z-0.000000
G01 X198.079784 Y39.616248 Z-0.000000
G01 X198.079784 Y39.616248 Z-0.000000
G00 Z0.000000

(End cutting path id: path3462)


(Start cutting path id: path3428)
(Change tool to Default tool)

G00 Z0.000000
G00 X198.079784 Y19.808128

G01 Z-0.000000 F100.0(Penetrate)
G01 X188.175901 Y19.808128 Z-0.000000 F400.000000
G01 X188.175901 Y29.712011 Z-0.000000
G01 X198.079784 Y29.712011 Z-0.000000
G01 X198.079784 Y19.808128 Z-0.000000
G01 X198.079784 Y19.808128 Z-0.000000
G00 Z0.000000

(End cutting path id: path3428)


(Start cutting path id: path3444)
(Change tool to Default tool)

G00 Z0.000000
G00 X178.272018 Y19.807775

G01 Z-0.000000 F100.0(Penetrate)
G01 X168.368134 Y19.807775 Z-0.000000 F400.000000
G01 X168.368134 Y29.712011 Z-0.000000
G01 X178.272018 Y29.712011 Z-0.000000
G01 X178.272018 Y19.807775 Z-0.000000
G01 X178.272018 Y19.807775 Z-0.000000
G00 Z0.000000

(End cutting path id: path3444)


(Start cutting path id: path3442)
(Change tool to Default tool)

G00 Z0.000000
G00 X158.463898 Y19.808128

G01 Z-0.000000 F100.0(Penetrate)
G01 X148.560015 Y19.808128 Z-0.000000 F400.000000
G01 X148.560015 Y29.712011 Z-0.000000
G01 X158.463898 Y29.712011 Z-0.000000
G01 X158.463898 Y19.808128 Z-0.000000
G01 X158.463898 Y19.808128 Z-0.000000
G00 Z0.000000

(End cutting path id: path3442)


(Start cutting path id: path3440)
(Change tool to Default tool)

G00 Z0.000000
G00 X138.656131 Y19.807775

G01 Z-0.000000 F100.0(Penetrate)
G01 X128.752248 Y19.807775 Z-0.000000 F400.000000
G01 X128.752248 Y29.712011 Z-0.000000
G01 X138.656131 Y29.712011 Z-0.000000
G01 X138.656131 Y19.807775 Z-0.000000
G01 X138.656131 Y19.807775 Z-0.000000
G00 Z0.000000

(End cutting path id: path3440)


(Start cutting path id: path3438)
(Change tool to Default tool)

G00 Z0.000000
G00 X118.848012 Y19.807775

G01 Z-0.000000 F100.0(Penetrate)
G01 X108.943776 Y19.807775 Z-0.000000 F400.000000
G01 X108.943776 Y29.712011 Z-0.000000
G01 X118.848012 Y29.712011 Z-0.000000
G01 X118.848012 Y19.807775 Z-0.000000
G01 X118.848012 Y19.807775 Z-0.000000
G00 Z0.000000

(End cutting path id: path3438)


(Start cutting path id: path3404)
(Change tool to Default tool)

G00 Z0.000000
G00 X99.039892 Y19.807775

G01 Z-0.000000 F100.0(Penetrate)
G01 X89.136009 Y19.807775 Z-0.000000 F400.000000
G01 X89.136009 Y29.712011 Z-0.000000
G01 X99.039892 Y29.712011 Z-0.000000
G01 X99.039892 Y19.807775 Z-0.000000
G01 X99.039892 Y19.807775 Z-0.000000
G00 Z0.000000

(End cutting path id: path3404)


(Start cutting path id: path3436)
(Change tool to Default tool)

G00 Z0.000000
G00 X79.231773 Y19.808128

G01 Z-0.000000 F100.0(Penetrate)
G01 X69.327889 Y19.808128 Z-0.000000 F400.000000
G01 X69.327889 Y29.712011 Z-0.000000
G01 X79.231773 Y29.712011 Z-0.000000
G01 X79.231773 Y19.808128 Z-0.000000
G01 X79.231773 Y19.808128 Z-0.000000
G00 Z0.000000

(End cutting path id: path3436)


(Start cutting path id: path3434)
(Change tool to Default tool)

G00 Z0.000000
G00 X59.424006 Y19.807775

G01 Z-0.000000 F100.0(Penetrate)
G01 X49.519770 Y19.807775 Z-0.000000 F400.000000
G01 X49.519770 Y29.712011 Z-0.000000
G01 X59.424006 Y29.712011 Z-0.000000
G01 X59.424006 Y19.807775 Z-0.000000
G01 X59.424006 Y19.807775 Z-0.000000
G00 Z0.000000

(End cutting path id: path3434)


(Start cutting path id: path3400)
(Change tool to Default tool)

G00 Z0.000000
G00 X39.615886 Y19.807775

G01 Z-0.000000 F100.0(Penetrate)
G01 X29.712003 Y19.807775 Z-0.000000 F400.000000
G01 X29.712003 Y29.712011 Z-0.000000
G01 X39.615886 Y29.712011 Z-0.000000
G01 X39.615886 Y19.807775 Z-0.000000
G01 X39.615886 Y19.807775 Z-0.000000
G00 Z0.000000

(End cutting path id: path3400)


(Start cutting path id: path3432)
(Change tool to Default tool)

G00 Z0.000000
G00 X19.807767 Y19.808128

G01 Z-0.000000 F100.0(Penetrate)
G01 X9.903883 Y19.808128 Z-0.000000 F400.000000
G01 X9.903883 Y29.712011 Z-0.000000
G01 X19.807767 Y29.712011 Z-0.000000
G01 X19.807767 Y19.808128 Z-0.000000
G01 X19.807767 Y19.808128 Z-0.000000
G00 Z0.000000

(End cutting path id: path3432)


(Start cutting path id: path3402)
(Change tool to Default tool)

G00 Z0.000000
G00 X19.807767 Y39.615895

G01 Z-0.000000 F100.0(Penetrate)
G01 X9.903883 Y39.615895 Z-0.000000 F400.000000
G01 X9.903883 Y49.520131 Z-0.000000
G01 X19.807767 Y49.520131 Z-0.000000
G01 X19.807767 Y39.615895 Z-0.000000
G01 X19.807767 Y39.615895 Z-0.000000
G00 Z0.000000

(End cutting path id: path3402)


(Start cutting path id: path3406)
(Change tool to Default tool)

G00 Z0.000000
G00 X19.807767 Y59.424014

G01 Z-0.000000 F100.0(Penetrate)
G01 X9.903883 Y59.424014 Z-0.000000 F400.000000
G01 X9.903883 Y69.327898 Z-0.000000
G01 X19.807767 Y69.327898 Z-0.000000
G01 X19.807767 Y59.424014 Z-0.000000
G01 X19.807767 Y59.424014 Z-0.000000
G00 Z0.000000

(End cutting path id: path3406)


(Start cutting path id: path3408)
(Change tool to Default tool)

G00 Z0.000000
G00 X19.807767 Y79.231781

G01 Z-0.000000 F100.0(Penetrate)
G01 X9.903883 Y79.231781 Z-0.000000 F400.000000
G01 X9.903883 Y89.136017 Z-0.000000
G01 X19.807767 Y89.136017 Z-0.000000
G01 X19.807767 Y79.231781 Z-0.000000
G01 X19.807767 Y79.231781 Z-0.000000
G00 Z0.000000

(End cutting path id: path3408)


(Start cutting path id: path3410)
(Change tool to Default tool)

G00 Z0.000000
G00 X19.807767 Y99.039901

G01 Z-0.000000 F100.0(Penetrate)
G01 X9.903883 Y99.039901 Z-0.000000 F400.000000
G01 X9.903883 Y108.943784 Z-0.000000
G01 X19.807767 Y108.943784 Z-0.000000
G01 X19.807767 Y99.039901 Z-0.000000
G01 X19.807767 Y99.039901 Z-0.000000
G00 Z0.000000

(End cutting path id: path3410)


(Start cutting path id: path3412)
(Change tool to Default tool)

G00 Z0.000000
G00 X19.807767 Y118.848020

G01 Z-0.000000 F100.0(Penetrate)
G01 X9.903883 Y118.848020 Z-0.000000 F400.000000
G01 X9.903883 Y128.751904 Z-0.000000
G01 X19.807767 Y128.751904 Z-0.000000
G01 X19.807767 Y118.848020 Z-0.000000
G01 X19.807767 Y118.848020 Z-0.000000
G00 Z0.000000

(End cutting path id: path3412)


(Start cutting path id: path3414)
(Change tool to Default tool)

G00 Z0.000000
G00 X19.807767 Y138.656140

G01 Z-0.000000 F100.0(Penetrate)
G01 X9.903883 Y138.656140 Z-0.000000 F400.000000
G01 X9.903883 Y148.560023 Z-0.000000
G01 X19.807767 Y148.560023 Z-0.000000
G01 X19.807767 Y138.656140 Z-0.000000
G01 X19.807767 Y138.656140 Z-0.000000
G00 Z0.000000

(End cutting path id: path3414)


(Start cutting path id: path3416)
(Change tool to Default tool)

G00 Z0.000000
G00 X19.807767 Y158.463907

G01 Z-0.000000 F100.0(Penetrate)
G01 X9.903883 Y158.463907 Z-0.000000 F400.000000
G01 X9.903883 Y168.367790 Z-0.000000
G01 X19.807767 Y168.367790 Z-0.000000
G01 X19.807767 Y158.463907 Z-0.000000
G01 X19.807767 Y158.463907 Z-0.000000
G00 Z0.000000

(End cutting path id: path3416)


(Start cutting path id: path3418)
(Change tool to Default tool)

G00 Z0.000000
G00 X19.807767 Y178.272026

G01 Z-0.000000 F100.0(Penetrate)
G01 X9.903883 Y178.272026 Z-0.000000 F400.000000
G01 X9.903883 Y188.175910 Z-0.000000
G01 X19.807767 Y188.175910 Z-0.000000
G01 X19.807767 Y178.272026 Z-0.000000
G01 X19.807767 Y178.272026 Z-0.000000
G00 Z0.000000

(End cutting path id: path3418)


(Start cutting path id: path3420)
(Change tool to Default tool)

G00 Z0.000000
G00 X19.807767 Y198.079793

G01 Z-0.000000 F100.0(Penetrate)
G01 X9.903883 Y198.079793 Z-0.000000 F400.000000
G01 X9.903883 Y207.983676 Z-0.000000
G01 X19.807767 Y207.983676 Z-0.000000
G01 X19.807767 Y198.079793 Z-0.000000
G01 X19.807767 Y198.079793 Z-0.000000
G00 Z0.000000

(End cutting path id: path3420)


(Start cutting path id: path3422)
(Change tool to Default tool)

G00 Z0.000000
G00 X19.807767 Y217.888265

G01 Z-0.000000 F100.0(Penetrate)
G01 X9.903883 Y217.888265 Z-0.000000 F400.000000
G01 X9.903883 Y227.792149 Z-0.000000
G01 X19.807767 Y227.792149 Z-0.000000
G01 X19.807767 Y217.888265 Z-0.000000
G01 X19.807767 Y217.888265 Z-0.000000
G00 Z0.000000

(End cutting path id: path3422)


(Start cutting path id: path3424)
(Change tool to Default tool)

G00 Z0.000000
G00 X19.808120 Y237.696032

G01 Z-0.000000 F100.0(Penetrate)
G01 X9.904236 Y237.696032 Z-0.000000 F400.000000
G01 X9.904236 Y247.600268 Z-0.000000
G01 X19.808120 Y247.600268 Z-0.000000
G01 X19.808120 Y237.696032 Z-0.000000
G01 X19.808120 Y237.696032 Z-0.000000
G00 Z0.000000

(End cutting path id: path3424)


(Start cutting path id: path3426)
(Change tool to Default tool)

G00 Z0.000000
G00 X19.807767 Y257.504152

G01 Z-0.000000 F100.0(Penetrate)
G01 X9.903883 Y257.504152 Z-0.000000 F400.000000
G01 X9.903883 Y267.408035 Z-0.000000
G01 X19.807767 Y267.408035 Z-0.000000
G01 X19.807767 Y257.504152 Z-0.000000
G01 X19.807767 Y257.504152 Z-0.000000
G00 Z0.000000

(End cutting path id: path3426)


(Start cutting path id: path3446)
(Change tool to Default tool)

G00 Z0.000000
G00 X39.615886 Y257.504152

G01 Z-0.000000 F100.0(Penetrate)
G01 X29.712003 Y257.504152 Z-0.000000 F400.000000
G01 X29.712003 Y267.408035 Z-0.000000
G01 X39.615886 Y267.408035 Z-0.000000
G01 X39.615886 Y257.504152 Z-0.000000
G01 X39.615886 Y257.504152 Z-0.000000
G00 Z0.000000

(End cutting path id: path3446)


(Start cutting path id: path3448)
(Change tool to Default tool)

G00 Z0.000000
G00 X59.424006 Y257.504152

G01 Z-0.000000 F100.0(Penetrate)
G01 X49.519770 Y257.504152 Z-0.000000 F400.000000
G01 X49.519770 Y267.408035 Z-0.000000
G01 X59.424006 Y267.408035 Z-0.000000
G01 X59.424006 Y257.504152 Z-0.000000
G01 X59.424006 Y257.504152 Z-0.000000
G00 Z0.000000

(End cutting path id: path3448)


(Start cutting path id: path3450)
(Change tool to Default tool)

G00 Z0.000000
G00 X79.232125 Y257.504152

G01 Z-0.000000 F100.0(Penetrate)
G01 X69.328242 Y257.504152 Z-0.000000 F400.000000
G01 X69.328242 Y267.408035 Z-0.000000
G01 X79.232125 Y267.408035 Z-0.000000
G01 X79.232125 Y257.504152 Z-0.000000
G01 X79.232125 Y257.504152 Z-0.000000
G00 Z0.000000

(End cutting path id: path3450)


(Start cutting path id: path3452)
(Change tool to Default tool)

G00 Z0.000000
G00 X99.040245 Y257.504152

G01 Z-0.000000 F100.0(Penetrate)
G01 X89.136009 Y257.504152 Z-0.000000 F400.000000
G01 X89.136009 Y267.408035 Z-0.000000
G01 X99.040245 Y267.408035 Z-0.000000
G01 X99.040245 Y257.504152 Z-0.000000
G01 X99.040245 Y257.504152 Z-0.000000
G00 Z0.000000

(End cutting path id: path3452)


(Start cutting path id: path3454)
(Change tool to Default tool)

G00 Z0.000000
G00 X118.848012 Y257.504152

G01 Z-0.000000 F100.0(Penetrate)
G01 X108.943776 Y257.504152 Z-0.000000 F400.000000
G01 X108.943776 Y267.408035 Z-0.000000
G01 X118.848012 Y267.408035 Z-0.000000
G01 X118.848012 Y257.504152 Z-0.000000
G01 X118.848012 Y257.504152 Z-0.000000
G00 Z0.000000

(End cutting path id: path3454)


(Start cutting path id: path3456)
(Change tool to Default tool)

G00 Z0.000000
G00 X138.656131 Y257.504152

G01 Z-0.000000 F100.0(Penetrate)
G01 X128.752248 Y257.504152 Z-0.000000 F400.000000
G01 X128.752248 Y267.408035 Z-0.000000
G01 X138.656131 Y267.408035 Z-0.000000
G01 X138.656131 Y257.504152 Z-0.000000
G01 X138.656131 Y257.504152 Z-0.000000
G00 Z0.000000

(End cutting path id: path3456)


(Start cutting path id: path3458)
(Change tool to Default tool)

G00 Z0.000000
G00 X158.463898 Y257.504152

G01 Z-0.000000 F100.0(Penetrate)
G01 X148.560015 Y257.504152 Z-0.000000 F400.000000
G01 X148.560015 Y267.408035 Z-0.000000
G01 X158.463898 Y267.408035 Z-0.000000
G01 X158.463898 Y257.504152 Z-0.000000
G01 X158.463898 Y257.504152 Z-0.000000
G00 Z0.000000

(End cutting path id: path3458)


(Start cutting path id: path3460)
(Change tool to Default tool)

G00 Z0.000000
G00 X178.272018 Y257.504152

G01 Z-0.000000 F100.0(Penetrate)
G01 X168.368134 Y257.504152 Z-0.000000 F400.000000
G01 X168.368134 Y267.408035 Z-0.000000
G01 X178.272018 Y267.408035 Z-0.000000
G01 X178.272018 Y257.504152 Z-0.000000
G01 X178.272018 Y257.504152 Z-0.000000
G00 Z0.000000

(End cutting path id: path3460)


(Start cutting path id: path3430)
(Change tool to Default tool)

G00 Z0.000000
G00 X198.079784 Y257.504504

G01 Z-0.000000 F100.0(Penetrate)
G01 X188.175901 Y257.504504 Z-0.000000 F400.000000
G01 X188.175901 Y267.408035 Z-0.000000
G01 X198.079784 Y267.408035 Z-0.000000
G01 X198.079784 Y257.504504 Z-0.000000
G01 X198.079784 Y257.504504 Z-0.000000
G00 Z0.000000

(End cutting path id: path3430)


(Footer)
M5
G00 X0.0000 Y0.0000
M2
(Using default footer. To add your own footer create file "footer" in the output dir.)
(end)
%