%
(Header)
(Generated by gcodetools from Inkscape.)
(Using default header. To add your own header create file "header" in the output dir.)
M3
(Header end.)
G21 (All units in mm)

(Start cutting path id: path4627)
(Change tool to Default tool)

G00 Z0.000000
G00 X9.000067 Y269.999885

G01 Z-0.000000 F100.0(Penetrate)
G01 X7.000169 Y269.999885 Z-0.000000 F400.000000
G01 X7.000169 Y271.999782 Z-0.000000
G01 X9.000067 Y271.999782 Z-0.000000
G01 X9.000067 Y269.999885 Z-0.000000
G01 X9.000067 Y269.999885 Z-0.000000
G00 Z0.000000

(End cutting path id: path4627)


(Start cutting path id: path4625)
(Change tool to Default tool)

G00 Z0.000000
G00 X209.000021 Y269.999885

G01 Z-0.000000 F100.0(Penetrate)
G01 X206.999771 Y269.999885 Z-0.000000 F400.000000
G01 X206.999771 Y271.999782 Z-0.000000
G01 X209.000021 Y271.999782 Z-0.000000
G01 X209.000021 Y269.999885 Z-0.000000
G01 X209.000021 Y269.999885 Z-0.000000
G00 Z0.000000

(End cutting path id: path4625)


(Start cutting path id: path4623)
(Change tool to Default tool)

G00 Z0.000000
G00 X209.000021 Y15.000111

G01 Z-0.000000 F100.0(Penetrate)
G01 X206.999771 Y15.000111 Z-0.000000 F400.000000
G01 X206.999771 Y17.000008 Z-0.000000
G01 X209.000021 Y17.000008 Z-0.000000
G01 X209.000021 Y15.000111 Z-0.000000
G01 X209.000021 Y15.000111 Z-0.000000
G00 Z0.000000

(End cutting path id: path4623)


(Start cutting path id: path4621)
(Change tool to Default tool)

G00 Z0.000000
G00 X9.000067 Y17.000008

G01 Z-0.000000 F100.0(Penetrate)
G01 X7.000169 Y17.000008 Z-0.000000 F400.000000
G01 X7.000169 Y15.000111 Z-0.000000
G01 X9.000067 Y15.000111 Z-0.000000
G01 X9.000067 Y17.000008 Z-0.000000
G01 X9.000067 Y17.000008 Z-0.000000
G00 Z0.000000

(End cutting path id: path4621)


(Footer)
M5
G00 X0.0000 Y0.0000
M2
(Using default footer. To add your own footer create file "footer" in the output dir.)
(end)
%